src/assets/tiles/type2.svg

<?xml version="1.0" encoding="UTF-8"?>
<!DOCTYPE svg PUBLIC "-//W3C//DTD SVG 1.1//EN" "http://www.w3.org/Graphics/SVG/1.1/DTD/svg11.dtd">
<!-- Creator: CorelDRAW -->
<svg xmlns="http://www.w3.org/2000/svg" xml:space="preserve" width="25mm" height="25mm" style="shape-rendering:geometricPrecision; text-rendering:geometricPrecision; image-rendering:optimizeQuality; fill-rule:evenodd; clip-rule:evenodd"
viewBox="0 0 0.852555 0.852555"
 xmlns:xlink="http://www.w3.org/1999/xlink">
 <defs>
  <style type="text/css">
   <![CDATA[
    .fil2 {fill:green}
    .fil0 {fill:gray}
    .fil1 {fill:#c6c6c6}
   ]]>
  </style>
 </defs>
 <g id="Layer_x0020_1">
  <metadata id="CorelCorpID_0Corel-Layer"/>
  <rect class="fil0" width="0.852555" height="0.852555"/>
  <rect class="fil1" x="0.0520447" y="0.0520447" width="0.800509" height="0.800509"/>
  <path class="fil2" d="M0.189097 0.339839l0.154994 0 0 -0.0515352c0.0647567,0.000286458 0.119989,-0.000702505 0.184749,-0.000419457 0.0115197,0.000600199 0.0518217,-0.00665675 0.0502769,0.0346819l0.000184152 0.020301c-0.00138455,0.0329973 -0.0416661,0.0345899 -0.0704006,0.047576 -0.212464,0.0651898 -0.317914,0.0976551 -0.318095,0.139874 -0.00121745,0.0214059 -0.000760479,0.0501268 -0.00116288,0.072341l0.000105717 0.106515 0.526739 0.0034375 -0.00171534 -0.104789 -0.369623 -0.000716146 -0.000184152 -0.0154824c0.00105717,-0.0112264 -0.00292256,-0.025164 0.0117755,-0.0317355 0.062598,-0.0231861 0.194229,-0.0667551 0.315739,-0.107309 0.0398655,-0.0174228 0.0466143,-0.0633858 0.0463688,-0.109465l0.000521764 -0.0936992c-0.000218254,-0.0436099 -0.0238238,-0.0720273 -0.0657115,-0.0702471l-0.40509 0.000654762c-0.0537519,0.00192677 -0.0594231,0.051849 -0.0594879,0.0797378l1.70511e-005 0.08028z"/>
 </g>
</svg>

<svg xmlns="http://www.w3.org/2000/svg" xml:space="preserve" width="25mm" height="25mm" style="shape-rendering:geometricPrecision;text-rendering:geometricPrecision;image-rendering:optimizeQuality;fill-rule:evenodd;clip-rule:evenodd" viewBox="0 0 0.853 0.853"><path style="fill:gray" d="M0 0h.853v.853H0z"/><path style="fill:#c6c6c6" d="M.052.052h.801v.801H.052z"/><path d="M.19.34h.154V.288H.53C.54.288.58.28.579.323v.02C.578.376.538.377.51.39.296.456.19.488.19.53L.19.603v.106l.526.004L.715.608h-.37V.591C.346.58.342.566.357.56.419.537.55.493.672.453.712.435.72.389.72.343V.25C.72.206.696.177.654.18H.249C.195.183.189.233.189.26v.08z" style="fill:green"/></svg>
